X:15
T:For Ireland I Won't Say Her Name
T:Ar \'Eirinn N\'i Neosfainn C\'e H\'i
R:air
Z:id:hn-air-15
M:3/4
L:1/8
Q:1/4=100
K:G
GA | B2 D3 D | E2 G3 A | B6- | B4 GA |
B2 D3 D | E2 G3 B | A6- | A4 GA |
B2 D3 D | E2 c3 A | B6- | B3 BAG |
E4 D2 | E2 G3 A  | G6- | G4 ||
Bc | d4 BA | G3 B d2 | e6- | e4 ge |
d4 BA | G3 A (3BAG | A6- | A4 GA |
B2 D3 D | E2 c3 A | B6- | B3 BAG |
E4 D2 | E2 G3 A | G6- | G4 ||

